X:1
T:In these delightful pleasant groves
T:In these delightful pleasant groves
T:Henry Purcell
C:Henry Purcell
%%score [ 1 2 3 4 ]
L:1/8
Q:1/2=60
M:2/2
K:Bb
V:1 treble nm="Soprano"
V:2 treble nm="Alto"
V:3 treble-8 nm="Tenor"
V:4 bass nm="Bass"
V:1
 G2 | B2 B2 B2 A2 | B4 c4 | d4 z2 d2 | d2 d2 d2 c2 | d4 =e4 | ^f4 z2 =f e | d2 d2 d2 d c | %8
w: In|these de- light- ful|pleas- ant|groves, in|these de- light- ful,|pleas- ant|groves, let us|ce- le- brate, let us|
 B2 B2 B2 B A | G2 G2 A2 B2 | c2 B2 A2 G2 | ^F4 z2 d2 | =f2 f2 f2 f2 | (f2 g2) =e4 | f4 z2 f2 | %15
w: ce- le- brate, let us|cel- le- brate our|hap- py hap- py|loves. In|these de- light- ful,|pleas- * ant|groves, in|
 d2 d2 d2 d2 | (d2 e2) c4 | d4 z2 d d | e2 e2 e2 e d | c2 c2 c2 f e | d2 d2 d2 =e2 | %21
w: these de- light- ful,|pleas- * ant|groves, let us|ce- le- brate, let us|ce- le- brate, let us|ce- le- brate our|
 f2 =e2 d2 ^c2 | d4 z2 d2 | B4 B2 e2 | c4 z2 f2 | d4 g2 d2 | e4 e2 c2 | (fedc B2) z2 | %28
w: hap- py, hap- py|loves, let's|pipe, pipe and|dance, let's|pipe, pipe and|dance, dance and|laugh, _ _ _ _|
 (edcB A2) z2 | (dcBA GABG | ABAB cdec | d4) B2 A2 | B4 z4 | d4 z4 | c4 z2 f2 | d2 c2 d2 c2 | %36
w: laugh, _ _ _ _|laugh, _ _ _ _ _ _ _|_ _ _ _ _ _ _ _|* laugh and|sing;|thus,|thus, thus|ev'- ry hap- py,|
 e2 d2 d2 c2 | d8 | z4 (B2 c2 | d2 c2 B2 d2 | c2 d2 e2) d2 | c2 B2 (cB) (AG) | G4 z4 | z4 (B2 c2 | %44
w: hap- py liv- ing|thing|re- *||* * * vels|in the cheer- * ful _|spring,|re- *|
 d2 c2 B2 d2 | c2 d2 e2) d2 | c2 B2 (cB) A2 | !fermata!G8 |] %48
w: |* * * vels|in the cheer- * ful|spring.|
V:2
 D2 | G2 G2 G2 ^F2 | G4 =F4 | F4 z2 F2 | F2 F2 F2 F2 | F4 B4 | A4 z2 A =F | F2 F2 F2 G A | %8
w: In|these de- light- ful,|pleas- ant|groves, in|these de- light- ful,|pleas- ant|groves, let us|ce- le- brate, let us|
 G2 G2 G2 G =F | E2 E2 E2 F2 | G2 F2 E2 E2 | D4 z2 =F2 | A2 A2 A2 A2 | B4 G4 | A4 z2 A2 | %15
w: ce- le- brate, let us|ce- le- brate our|hap- py, hap- py|loves. In|these de- light- ful,|pleas- ant|groves, in|
 F2 F2 F2 F2 | G4 F4 | F4 z2 G G | G2 G2 G2 G G | G2 F2 F2 F F | F2 F2 F2 B2 | A2 B2 A2 G2 | %22
w: these de- light- ful,|pleas- ant|groves, let us|ce- le- brate, let us|ce- le- brate, let us|ce- le- brate our|hap- py, hap- py|
 ^F4 z2 F2 | G4 G2 G2 | (G2 F2) z2 A2 | G4 =B2 G2 | G4 (A_BAG | F2) z2 (BAGF | E2) z2 (AGFE | %29
w: loves, let's|pipe, pipe and|dance, _ let's|pipe, pipe and|dance, laugh, _ _ _|_ laugh, _ _ _|_ laugh, _ _ _|
 D2) z2 (GFED | C2) F2 F2 (FG | FGFG F2) E2 | D4 z4 | F4 z4 | F4 z2 A2 | F2 F2 F2 ^F2 | %36
w: _ laugh, _ _ _|_ and sing, laugh _|_ _ _ _ _ and|sing;|thus,|thus, thus|ev'- ry hap- py,|
 G2 D2 G2 A2 | ^F4 (G2 A2 | B2) A2 G2 ^F2 | ((G4 G)AGA | (G4 G)AGA | G2) G2 G2 ^F2 | G4 (G2 A2 | %43
w: hap- py liv- ing|thing re- *|* vels in the|cheer- * * * *||* ful, cheer- ful|spring, re- *|
 B2) A2 G2 ^F2 | (G4 G)AGA | (G4 G)AGA | G2 G2 G2 ^F2 | !fermata!G8 |] %48
w: * vels in the|cheer- * * * *||* ful, cheer- ful|spring.|
V:3
 B2 | d2 d2 d2 d2 | d4 (cd e2) | d4 z2 B2 | B2 B2 B2 A2 | (Bc d2) d4 | d4 z2 d c | d2 d2 d2 d d | %8
w: In|these de- light- ful|pleas- * * ant|groves, in|these de- light- ful|pleas- * * ant|groves, let us|ce- le- brate, let us|
 d2 d2 d2 d d | B2 B2 c2 d2 | e2 d2 c2 B2 | A4 z2 A2 | d2 d2 d2 d2 | d4 c4 | c4 z2 c2 | %15
w: ce- le- brate, let us|ce- le brate our|hap- py, hap- py|loves. In|these de- light- ful,|pleas- ant|groves, in|
 d2 d2 B2 B2 | (B2 c2) A4 | B4 z2 d B | c2 c2 c2 c B | e2 e2 e2 d c | d2 d2 d2 d2 | %21
w: these de- light- ful,|pleas- * ant|groves let us|ce- le- brate, let us|ce- le- brate, let us|ce- le- brate our|
 ^c2 (d=e) f2 e2 | d4 z2 d2 | d4 d2 (cB) | A4 z2 d2 | =B4 d2 B2 | c4 z2 (fe | d2) z2 (gfed | %28
w: hap- * py, hap- py|loves, let's|pipe, pipe and _|dance, let's|pipe, pipe and|dance, laugh, _|_ laugh, _ _ _|
 c2) z2 (fedc | B2) z2 (edcB | A2) d2 e4 | (dede d2) c2 | B4 z4 | B4 z4 | A4 z2 c2 | d2 A2 B2 c2 | %36
w: _ laugh, _ _ _|_ laugh, _ _ _|_ and sing,|laugh _ _ _ _ and|sing;|thus,|thus, thus|ev'- ry hap- py,|
 B2 A2 G2 e2 | A4 (B2 c2 | d2 c2 B2 A2 | G2 A2 B2 G2 | A2 B2 c2) d2 | d2 d2 d2 d2 | d4 (B2 c2 | %43
w: hap- py liv- ing|thing re- *|||* * * vels|in the cheer- ful|spring, re- *|
 d2 c2 B2 A2 | G2 A2 B2 G2 | A2 B2 c2) d2 | d2 d2 d2 c2 | !fermata!=B8 |] %48
w: ||* * * vels|in the cheer- ful|spring.|
V:4
 G,,2 | G,2 G,2 G,2 D,2 | G,4 A,4 | B,4 z2 B,2 | B,2 B,2 B,2 F,2 | B,4 G,4 | D4 z2 D C | %7
w: In|these de- light- ful|pleas- ant|groves, in|these de- light- ful|pleas- ant|groves, let us|
 B,2 B,2 B,2 B, ^F, | G,2 G,2 G,2 G, D, | E,2 E,2 E,2 D,2 | C,2 D,2 E,2 C,2 | D,4 z2 D,2 | %12
w: ce- le- brate, let us|ce- le- brate, let us|ce- le- brate our|hap- py, hap- py|loves. In|
 D2 D2 D2 D2 | G,4 C4 | F,4 z2 F,2 | B,2 B,2 B,2 B,2 | E,4 F,4 | B,,4 z2 B, G, | C2 C2 C2 C G, | %19
w: these de- light- ful,|pleas- ant|groves, in|these de- light- ful,|pleas- ant|groves let us|ce- le- brate, let us|
 A,2 A,2 A,2 A, F, | B,2 B,2 B,2 G,2 | A,2 G,2 A,2 A,,2 | D,4 z2 D,2 | G,4 G,2 C,2 | F,4 z2 D,2 | %25
w: ce- le- brate, let us|ce- le- brate our|hap- py, hap- py|loves, let's|pipe, pipe and|dance, let's|
 G,4 G,2 G,,2 | C,4 C2 A,2 | (DCB,A, G,2) z2 | (CB,A,G, F,2) z2 | (B,A,G,F, E,F,G,E, | %30
w: pipe, pipe and|dance, dance and|laugh, _ _ _ _|laugh, _ _ _ _|laugh, _ _ _ _ _ _ _|
 F,G,F,G, A,B,CA, | B,4) F,2 F,2 | B,,4 z4 | B,4 z4 | F,4 z2 F,2 | B,2 F,2 B,2 A,2 | %36
w: _ _ _ _ _ _ _ _|* laugh and|sing;|thus,|thus, thus|ev'- ry hap- py,|
 G,2 F,2 E,3 D, | D,8 | z4 (G,2 A,2 | B,2 A,2 G,2 F,2 | E,2 D,2 C,2) B,,2 | A,,2 G,,2 D,2 D,2 | %42
w: hap- py liv- ing|thing|re- *||* * * vels|in the cheer- ful|
 G,,8- | G,,4 (G,2 A,2 | B,2 A,2 G,2 F,2 | E,2 D,2 C,2) B,,2 | A,,2 G,,2 D,2 D,2 | %47
w: spring,|_ re- *||* * * vels|in the cheer- ful|
 !fermata![G,,D,]8 |] %48
w: spring.|

